X: 153
T:Timmy Clifford's
R:jig
Z:Robert Crosbie s
M:6/8
L:1/8
K:G
GBd e2d|egf gdB|GBd c2B|AGF G3|GBd e2d|egf gab|
d3 B3|1 AGF G3:|2 AGF GBd|:efe d2B|BAG GBd|efe d2B|
BAG A3|efe d2B|BAG GAB|c3 B3|1 AGF GBd:|2 AGF G3|]
